public/icons/php.svg

<svg width="61" height="29" viewBox="0 0 61 29" fill="none" xmlns="http://www.w3.org/2000/svg">
<path d="M10.5618 18.6373C12.4069 18.6373 13.7844 18.3115 14.6559 17.6691C15.5181 17.0334 16.1136 15.9319 16.4258 14.3954C16.7168 12.9593 16.6059 11.9565 16.0964 11.4153C15.5753 10.8626 14.4489 10.5823 12.7483 10.5823H9.79964L8.16498 18.6373H10.5618ZM0.917647 28.5597C0.780776 28.5597 0.650786 28.5011 0.563769 28.3998C0.476599 28.2986 0.441271 28.1653 0.467422 28.0366L4.79961 6.69054C4.84151 6.48418 5.03038 6.33509 5.24999 6.33509H14.5869C17.5214 6.33509 19.7055 7.09812 21.0783 8.60324C22.4585 10.1163 22.8848 12.2312 22.3451 14.8893C22.1255 15.9721 21.7477 16.9779 21.2224 17.8783C20.6965 18.7797 20.0014 19.6138 19.1562 20.3578C18.1444 21.2646 16.9993 21.9222 15.7556 22.3091C14.5317 22.6909 12.9599 22.8845 11.0839 22.8845H7.30322L6.22354 28.2041C6.18163 28.4106 5.99292 28.5597 5.77331 28.5597H0.917647Z" fill="black"/>
<path d="M10.1777 11.0226H12.7481C14.8006 11.0226 15.5135 11.4539 15.7558 11.7109C16.1577 12.1377 16.2335 13.0375 15.9752 14.313C15.685 15.741 15.147 16.7534 14.3759 17.3219C13.5865 17.904 12.3031 18.1989 10.5617 18.1989H8.72132L10.1777 11.0226ZM14.5868 5.89666H5.24967C4.81045 5.89666 4.43287 6.19484 4.34907 6.6077L0.0168776 27.9537C-0.0354243 28.2113 0.0352295 28.4777 0.209416 28.6803C0.383756 28.8828 0.64343 29 0.91748 29H5.77299C6.21236 29 6.58994 28.7018 6.67375 28.289L7.68125 23.3249H11.0838C13.0079 23.3249 14.6278 23.1239 15.8978 22.7278C17.204 22.3213 18.4057 21.6323 19.4694 20.6797C20.349 19.9047 21.0736 19.0347 21.6226 18.0938C22.1718 17.1525 22.5663 16.1028 22.7953 14.974C23.3634 12.1761 22.9019 9.93561 21.4236 8.31522C19.9598 6.71037 17.6594 5.89666 14.5868 5.89666ZM7.60815 19.0776H10.5617C12.5193 19.0776 13.9775 18.7245 14.9356 18.0182C15.8939 17.3117 16.5401 16.1326 16.876 14.4803C17.1973 12.8939 17.0509 11.7744 16.4369 11.1222C15.8221 10.47 14.5927 10.1439 12.7481 10.1439H9.42128L7.60815 19.0776ZM14.5868 6.77539C17.3956 6.77539 19.4447 7.4813 20.7327 8.89328C22.0205 10.3053 22.4084 12.2761 21.8945 14.8064C21.683 15.8487 21.3253 16.8017 20.8217 17.6651C20.3175 18.529 19.6591 19.319 18.8456 20.0353C17.876 20.9042 16.7989 21.5235 15.6137 21.8922C14.4285 22.262 12.9189 22.4461 11.0838 22.4461H6.92471L5.77299 28.1213H0.91748L5.24967 6.77539H14.5868Z" fill="white"/>
<path d="M33.3491 23.2247C33.2121 23.2247 33.0822 23.1661 32.9952 23.0648C32.9079 22.9636 32.8726 22.8305 32.8987 22.7016L34.8151 13.2568C34.9974 12.3586 34.9524 11.7139 34.6886 11.4415C34.5271 11.275 34.042 10.9957 32.6077 10.9957H29.1359L26.7265 22.8691C26.6846 23.0756 26.4957 23.2247 26.2761 23.2247H21.4588C21.3218 23.2247 21.192 23.1661 21.1048 23.0648C21.0176 22.9636 20.9823 22.8303 21.0084 22.7016L25.3406 1.35557C25.3825 1.14921 25.5714 1.00012 25.791 1.00012H30.6083C30.7453 1.00012 30.8752 1.0587 30.9623 1.1599C31.0495 1.26125 31.0848 1.39438 31.0587 1.52326L30.0132 6.67527H33.7481C36.5933 6.67527 38.5227 7.15564 39.6464 8.14392C40.7919 9.15212 41.1493 10.7642 40.7088 12.9358L38.6932 22.8691C38.6513 23.0756 38.4626 23.2247 38.2428 23.2247H33.3491Z" fill="black"/>
<path d="M30.737 0.221491H25.9197C25.4804 0.221491 25.1028 0.519674 25.019 0.932531L20.6868 22.2786C20.6345 22.5362 20.7051 22.8026 20.8795 23.0051C21.0538 23.2077 21.3135 23.3248 21.5876 23.3248H26.4048C26.844 23.3248 27.2218 23.0266 27.3056 22.6138L29.6428 11.0958H32.7364C34.1683 11.0958 34.4688 11.3887 34.4809 11.4013C34.5678 11.4908 34.682 11.9053 34.4934 12.8338L32.5771 22.2786C32.5248 22.5362 32.5954 22.8026 32.7698 23.0051C32.9441 23.2077 33.2038 23.3248 33.4778 23.3248H38.3716C38.8108 23.3248 39.1885 23.0266 39.2723 22.6138L41.2878 12.6805C41.7608 10.3487 41.3561 8.59962 40.0856 7.48129C38.8732 6.41494 36.8423 5.89664 33.8768 5.89664H30.6983L31.6378 1.26792C31.6899 1.0103 31.6194 0.743752 31.4451 0.541351C31.2707 0.338802 31.0111 0.221491 30.737 0.221491ZM30.737 1.10022L29.5853 6.77537H33.8768C36.5771 6.77537 38.4396 7.22675 39.4647 8.12832C40.4898 9.03049 40.7969 10.4923 40.3872 12.5129L38.3716 22.4461H33.4778L35.3942 13.0015C35.6123 11.9271 35.5321 11.1942 35.1535 10.8035C34.7747 10.4127 33.9689 10.2171 32.7364 10.2171H28.8863L26.4048 22.4461H21.5876L25.9197 1.10022H30.737Z" fill="white"/>
<path d="M48.3313 18.9774C50.1764 18.9774 51.5539 18.6516 52.4254 18.0092C53.2876 17.3736 53.8831 16.2721 54.1954 14.7355C54.4865 13.2994 54.3756 12.2966 53.8659 11.7554C53.3448 11.2027 52.2184 10.9224 50.5178 10.9224H47.5691L45.9345 18.9774H48.3313ZM38.6873 28.8998C38.5504 28.8998 38.4205 28.8412 38.3334 28.7399C38.2463 28.6386 38.2108 28.5054 38.2369 28.3766L42.5691 7.03063C42.6112 6.82427 42.7999 6.67518 43.0197 6.67518H52.3565C55.291 6.67518 57.475 7.43821 58.848 8.94333C60.2282 10.4562 60.6542 12.5712 60.1147 15.2293C59.8948 16.3122 59.5172 17.3179 58.9919 18.2184C58.466 19.1198 57.7709 19.9538 56.9257 20.6978C55.9139 21.6047 54.7688 22.2623 53.5251 22.6492C52.3012 23.031 50.7294 23.2246 48.8534 23.2246H45.0726L43.9934 28.5442C43.9513 28.7507 43.7626 28.8998 43.5428 28.8998H38.6873Z" fill="black"/>
<path d="M48.0759 11.0226H50.6464C52.6988 11.0226 53.4118 11.4539 53.654 11.7109C54.0561 12.1377 54.1319 13.0375 53.8735 14.3129C53.5832 15.741 53.0451 16.7534 52.2742 17.3219C51.4847 17.904 50.2014 18.1989 48.46 18.1989H46.6198L48.0759 11.0226ZM52.4851 5.89666H43.1481C42.7089 5.89666 42.3313 6.19484 42.2475 6.6077L37.9153 27.9537C37.863 28.2113 37.9337 28.4777 38.1079 28.6803C38.2822 28.8828 38.5419 29 38.8159 29H43.6714C44.1106 29 44.4884 28.7018 44.5722 28.289L45.5795 23.3249H48.9821C50.9062 23.3249 52.526 23.1239 53.7961 22.7278C55.1023 22.3213 56.3043 21.6321 57.3679 20.6794C58.2476 19.9045 58.9719 19.0347 59.5209 18.0938C60.07 17.1525 60.4646 16.1028 60.6935 14.974C61.2617 12.1759 60.8001 9.93546 59.3219 8.31507C57.8581 6.71036 55.5579 5.89666 52.4851 5.89666ZM45.5066 19.0776H48.46C50.4176 19.0776 51.8758 18.7245 52.8339 18.0182C53.7923 17.3117 54.4384 16.1326 54.7743 14.4803C55.0957 12.8939 54.9494 11.7744 54.3352 11.1222C53.7204 10.47 52.491 10.1439 50.6464 10.1439H47.3196L45.5066 19.0776ZM52.4851 6.77539C55.2939 6.77539 57.343 7.4813 58.631 8.89328C59.919 10.3053 60.3066 12.2761 59.7928 14.8064C59.5813 15.8487 59.2236 16.8017 58.72 17.6651C58.2158 18.529 57.5574 19.319 56.7438 20.0353C55.7743 20.9042 54.6972 21.5235 53.512 21.8922C52.3268 22.262 50.8172 22.4461 48.9821 22.4461H44.823L43.6714 28.1213H38.8159L43.1481 6.77539H52.4851Z" fill="white"/>
</svg>

<svg width="61" height="29" fill="none" xmlns="http://www.w3.org/2000/svg"><path d="M10.562 18.637c1.845 0 3.222-.326 4.094-.968.862-.636 1.458-1.737 1.77-3.274.29-1.436.18-2.438-.33-2.98-.52-.552-1.647-.833-3.348-.833H9.8l-1.635 8.055h2.397ZM.918 28.56a.467.467 0 0 1-.354-.16.426.426 0 0 1-.097-.363L4.8 6.69a.454.454 0 0 1 .45-.356h9.337c2.934 0 5.119.763 6.491 2.268 1.38 1.513 1.807 3.628 1.267 6.286a9.764 9.764 0 0 1-1.123 2.99 10.095 10.095 0 0 1-2.066 2.479 9.152 9.152 0 0 1-3.4 1.951c-1.224.382-2.796.575-4.672.575h-3.78l-1.08 5.32a.454.454 0 0 1-.45.356H.917Z" fill="#000"/><path d="M10.178 11.023h2.57c2.053 0 2.766.43 3.008.688.402.427.477 1.326.22 2.602-.291 1.428-.829 2.44-1.6 3.009-.79.582-2.073.877-3.814.877h-1.84l1.456-7.176Zm4.409-5.126H5.25a.908.908 0 0 0-.9.71L.016 27.955a.852.852 0 0 0 .192.726c.175.203.434.32.708.32h4.856c.44 0 .817-.298.9-.711l1.008-4.964h3.403c1.924 0 3.544-.201 4.814-.597a9.617 9.617 0 0 0 3.571-2.048 10.542 10.542 0 0 0 2.154-2.586c.549-.942.943-1.991 1.172-3.12.568-2.798.107-5.038-1.371-6.659-1.464-1.605-3.765-2.418-6.837-2.418Zm-6.979 13.18h2.954c1.957 0 3.415-.353 4.374-1.059.958-.706 1.604-1.885 1.94-3.538.321-1.586.175-2.706-.44-3.358-.614-.652-1.843-.978-3.688-.978H9.421l-1.813 8.934Zm6.979-12.302c2.809 0 4.858.706 6.146 2.118 1.287 1.412 1.675 3.383 1.162 5.913a9.3 9.3 0 0 1-1.073 2.86 9.617 9.617 0 0 1-1.976 2.37 8.659 8.659 0 0 1-3.232 1.856c-1.186.37-2.695.554-4.53.554h-4.16l-1.151 5.675H.917L5.25 6.775h9.337Z" fill="#fff"/><path d="M33.35 23.225a.466.466 0 0 1-.355-.16.425.425 0 0 1-.096-.363l1.916-9.445c.182-.898.137-1.543-.126-1.816-.162-.166-.647-.445-2.081-.445h-3.472l-2.41 11.873a.454.454 0 0 1-.45.356H21.46a.467.467 0 0 1-.354-.16.426.426 0 0 1-.097-.363l4.333-21.346A.454.454 0 0 1 25.79 1h4.817c.137 0 .267.059.354.16a.426.426 0 0 1 .097.363l-1.046 5.152h3.735c2.845 0 4.775.48 5.898 1.469 1.146 1.008 1.503 2.62 1.063 4.792l-2.016 9.933a.454.454 0 0 1-.45.356h-4.894Z" fill="#000"/><path d="M30.737.221H25.92a.908.908 0 0 0-.901.712l-4.332 21.346a.851.851 0 0 0 .192.726c.175.203.434.32.709.32h4.817c.439 0 .817-.298.9-.711l2.338-11.518h3.093c1.432 0 1.733.293 1.745.305.087.09.201.504.012 1.433l-1.916 9.445a.851.851 0 0 0 .193.726c.174.203.434.32.708.32h4.894c.439 0 .816-.298.9-.711l2.016-9.934c.473-2.331.068-4.08-1.202-5.199-1.213-1.066-3.244-1.584-6.21-1.584h-3.178l.94-4.63a.852.852 0 0 0-.193-.726.934.934 0 0 0-.708-.32Zm0 .88-1.152 5.674h4.292c2.7 0 4.563.452 5.588 1.353 1.025.902 1.332 2.364.922 4.385l-2.015 9.933h-4.894l1.916-9.445c.218-1.074.138-1.807-.24-2.197-.38-.391-1.185-.587-2.418-.587h-3.85l-2.481 12.23h-4.817L25.92 1.1h4.817Z" fill="#fff"/><path d="M48.331 18.977c1.845 0 3.223-.325 4.094-.968.863-.635 1.458-1.737 1.77-3.274.291-1.436.18-2.438-.33-2.98-.52-.552-1.647-.833-3.347-.833h-2.949l-1.635 8.055h2.397ZM38.687 28.9a.467.467 0 0 1-.354-.16.426.426 0 0 1-.096-.363L42.569 7.03a.454.454 0 0 1 .45-.356h9.337c2.935 0 5.119.763 6.492 2.268 1.38 1.513 1.806 3.628 1.267 6.286a9.772 9.772 0 0 1-1.123 2.99 10.095 10.095 0 0 1-2.066 2.479 9.151 9.151 0 0 1-3.4 1.951c-1.225.382-2.797.576-4.673.576h-3.78l-1.08 5.32a.454.454 0 0 1-.45.355h-4.856Z" fill="#000"/><path d="M48.076 11.023h2.57c2.053 0 2.766.43 3.008.688.402.427.478 1.326.22 2.602-.29 1.428-.829 2.44-1.6 3.009-.79.582-2.073.877-3.814.877h-1.84l1.456-7.176Zm4.41-5.126h-9.338a.908.908 0 0 0-.9.71l-4.333 21.347a.852.852 0 0 0 .193.726c.174.203.434.32.708.32h4.855c.44 0 .817-.298.901-.711l1.008-4.964h3.402c1.924 0 3.544-.201 4.814-.597a9.616 9.616 0 0 0 3.572-2.049 10.536 10.536 0 0 0 2.153-2.585c.549-.942.944-1.991 1.172-3.12.569-2.798.107-5.039-1.371-6.659-1.464-1.605-3.764-2.418-6.837-2.418Zm-6.98 13.18h2.954c1.958 0 3.416-.353 4.374-1.059.958-.706 1.604-1.885 1.94-3.538.322-1.586.175-2.706-.439-3.358-.615-.652-1.844-.978-3.689-.978H47.32l-1.813 8.934Zm6.98-12.302c2.808 0 4.857.706 6.145 2.118 1.288 1.412 1.676 3.383 1.162 5.913a9.3 9.3 0 0 1-1.073 2.86 9.615 9.615 0 0 1-1.976 2.37 8.657 8.657 0 0 1-3.232 1.856c-1.185.37-2.695.554-4.53.554h-4.159l-1.152 5.675h-4.855l4.332-21.346h9.337Z" fill="#fff"/></svg>
